X:944
T:Roving Blades
S:Bruce & Emmett's Drummers and Fifers Guide (1862), p. 94
M:3/4
L:1/8
Q:1/4=180
K:Em
%%MIDI program 72
%%MIDI transpose 8
%%MIDI ratio 3 1
D2|G2GABG|A2A2AB|c2e2d2|B2z2(3Bcd|e3fgf|edB2G>B|A>GE2E2|E4::
(3Bcd|e3fgf|edB2B2|c2e2d2|B2z2(3Bcd|e3fgf|edB2G>B|A>GE2E2|E4:|
